nakazaniya/dist/images/frame6.svg

<svg width="19" height="17" viewBox="0 0 19 17" fill="none" xmlns="http://www.w3.org/2000/svg">
<path d="M8.40157 8.94731L4.99552 5.93752L2.74966 8.1515L8.6643 13.3774L19 1.96802L16.506 0L8.40157 8.94731Z" fill="#8AD5DD"/>
<path d="M10.1695 4.52173V3.1936H0V16.0828H12.8354V13.1282H11.351V14.7547H1.48438V4.52173H10.1695Z" fill="#2D2D2D"/>
</svg>

<svg width="19" height="17" viewBox="0 0 19 17" fill="none" xmlns="http://www.w3.org/2000/svg"><path d="M8.402 8.947l-3.406-3.01L2.75 8.153l5.914 5.225L19 1.968 16.506 0 8.402 8.947z" fill="#8AD5DD"/><path d="M10.17 4.522V3.194H0v12.889h12.835v-2.955h-1.484v1.627H1.484V4.522h8.685z" fill="#2D2D2D"/></svg>
